T: Killavil Fancy, The
M: 4/4
L: 1/8
K: Gmaj
|: DBBG AGBA | GEED cABG | DGBG ~A3B | GEED EFGA |~B2dB ~A2BA | GE~E2 c2BG | DBBG A2BA | GEED E~E2D ||: GABd edge | dB~B2 dBAB | GABd ~e2ge | dBAG E~G3 |GA (3B/c/d/ egge | dB~B2 dega | (3b/g/a/ ag egdg | gedB AGEG |
